X:341
T:Exe Geia Panagia
T:Farewell Virgin Mary
Z:Jack Campin, http://www.campin.me.uk/
F:Jack Campin's Nine-Note Tunebook
% last edit 24-05-2014
M:2/4
L:1/8
Q:1/4=120
K:EPhr
  zE ^GA| B2  B2| B2  B2|B4|zB c^c| d2  c2|BA  BA|^G4||
|:zE ^GA| B2 ^G2| A^G FE|D4|zD EF |^G2  A2|B^G AF| E4:|
|:BA  B2|^GF  E2|^GA  GA|B4|dd dc | BA ^GA|BA ^GF| E4:|

